generic/geltru-shadow-correction.pp3
[Version]
AppVersion=4.0.11.0
Version=308

[General]
Rank=0
ColorLabel=0
InTrash=false

[Exposure]
Auto=false
Clip=0
Compensation=1.76
Brightness=-21
Contrast=21
Saturation=-22
Black=199
HighlightCompr=145
HighlightComprThreshold=33
ShadowCompr=79
CurveMode=Standard
CurveMode2=Standard
Curve=0;
Curve2=0;

[Channel Mixer]
Red=100;0;0;
Green=0;100;0;
Blue=0;0;100;

[Luminance Curve]
Brightness=0
Contrast=0
Chromaticity=5
AvoidColorShift=true
RedAndSkinTonesProtection=0
BWtoning=false
LCredsk=true
LCurve=0;
aCurve=0;
bCurve=0;
ccCurve=0;
chCurve=0;
LcCurve=0;

[Sharpening]
Enabled=false
Method=usm
Radius=0.5
Amount=125
Threshold=512;512;2000;2000;
OnlyEdges=false
EdgedetectionRadius=1.9000000000000001
EdgeTolerance=1800
HalocontrolEnabled=false
HalocontrolAmount=85
DeconvRadius=0.75
DeconvAmount=75
DeconvDamping=20
DeconvIterations=30

[Vibrance]
Enabled=false
Pastels=50
Saturated=50
PSThreshold=75;75;
ProtectSkins=false
AvoidColorShift=true
PastSatTog=true
SkinTonesCurve=0;

[SharpenEdge]
Enabled=false
Passes=2
Strength=50
ThreeChannels=false

[SharpenMicro]
Enabled=false
Matrix=false
Strength=20
Uniformity=50

[White Balance]
Setting=Camera
Temperature=5577
Green=1.038

[Color appearance]
Enabled=false
Degree=90
AutoDegree=true
Surround=Average
AdaptLum=16
Badpixsl=0
Model=RawT
Algorithm=JC
J-Light=0
Q-Bright=0
C-Chroma=0
S-Chroma=0
M-Chroma=0
J-Contrast=0
Q-Contrast=0
H-Hue=0
RSTProtection=0
AdaptScene=2000
AutoAdapscen=true
SurrSource=false
Gamut=true
Datacie=false
Tonecie=false
CurveMode=Lightness
CurveMode2=Lightness
CurveMode3=Chroma
Curve=0;
Curve2=0;
Curve3=0;

[Impulse Denoising]
Enabled=false
Threshold=50

[Defringing]
Enabled=false
Radius=2
Threshold=25
HueCurve=1;0.16666666699999999;0;0.34999999999999998;0.34999999999999998;0.34699999999999998;0;0.34999999999999998;0.34999999999999998;0.51366742600000004;0;0.34999999999999998;0.34999999999999998;0.66894457100000004;0;0.34999999999999998;0.34999999999999998;0.82877752459999998;0.97835991;0.34999999999999998;0.34999999999999998;0.99088838270000001;0;0.34999999999999998;0.34999999999999998;

[Directional Pyramid Denoising]
Enabled=false
Luma=5
Ldetail=50
Chroma=5
Method=RGB
Redchro=0
Bluechro=0
Gamma=2

[EPD]
Enabled=false
Strength=0.25
EdgeStopping=1.4000000000000001
Scale=1
ReweightingIterates=0

[Shadows & Highlights]
Enabled=true
HighQuality=false
Highlights=55
HighlightTonalWidth=80
Shadows=18
ShadowTonalWidth=49
LocalContrast=6
Radius=81

[Crop]
Enabled=false
X=0
Y=0
W=4300
H=2860
FixedRatio=false
Ratio=3:2
Orientation=Landscape
Guide=None

[Coarse Transformation]
Rotate=0
HorizontalFlip=false
VerticalFlip=false

[Common Properties for Transformations]
AutoFill=true

[Rotation]
Degree=0

[Distortion]
Amount=0

[LensProfile]
LCPFile=
UseDistortion=true
UseVignette=true
UseCA=true

[Perspective]
Horizontal=0
Vertical=0

[CACorrection]
Red=0
Blue=0

[Vignetting Correction]
Amount=0
Radius=50
Strength=1
CenterX=0
CenterY=0

[HLRecovery]
Enabled=false
Method=Blend

[Resize]
Enabled=false
Scale=0.20999999999999999
AppliesTo=Cropped area
Method=Lanczos
DataSpecified=3
Width=900
Height=900

[Color Management]
InputProfile=(camera)
ToneCurve=false
BlendCMSMatrix=true
PreferredProfile=true
WorkingProfile=sRGB
OutputProfile=No ICM: sRGB output
Gammafree=default
Freegamma=false
GammaValue=2.2200000000000002
GammaSlope=4.5

[Directional Pyramid Equalizer]
Enabled=true
Mult0=3
Mult1=1
Mult2=1
Mult3=1
Mult4=0.20000000000000001

[HSV Equalizer]
HCurve=0;
SCurve=0;
VCurve=0;

[RGB Curves]
LumaMode=false
rCurve=0;
gCurve=0;
bCurve=0;

[RAW]
DarkFrame=
DarkFrameAuto=false
FlatFieldFile=
FlatFieldAutoSelect=false
FlatFieldBlurRadius=32
FlatFieldBlurType=Area Flatfield
CA=false
CARed=0
CABlue=0
HotDeadPixels=false
HotDeadPixelThresh=40
LineDenoise=0
GreenEqThreshold=0
CcSteps=0
Method=amaze
DCBIterations=2
DCBEnhance=false
LMMSEIterations=2
PreExposure=1
PrePreserv=0
PreBlackzero=0
PreBlackone=0
PreBlacktwo=0
PreBlackthree=0
PreTwoGreen=true
